X:130
T:Good Mornin', Ladies All (b)
M:6/8
L:1/8
Q:1/4=110
K:G
G2A|\
B2B BAB|A2G GFG|A3  E3 |A3-AGA|
B2B BAB|A2G G2G|B2d A2B|G3 ||
